images/checkbox-checked.svg

<svg height="16" viewBox="0 0 16 16" width="16" xmlns="http://www.w3.org/2000/svg"><g fill="#fff" fill-rule="evenodd"><path d="m0 0v16h16v-16zm15 15h-14v-14h14z"/><path d="m2.5 8 1.5-1.5 2.5 2.5 5.5-5.5 1.5 1.5-7 7z"/></g></svg>

<?xml version="1.0" encoding="UTF-8" standalone="no"?>
<svg width="16px" height="16px" viewBox="0 0 16 16" version="1.1" xmlns="http://www.w3.org/2000/svg" xmlns:xlink="http://www.w3.org/1999/xlink" xmlns:sketch="http://www.bohemiancoding.com/sketch/ns">
    <!-- Generator: Sketch 3.5.2 (25235) - http://www.bohemiancoding.com/sketch -->
    <title>checkbox-checked</title>
    <desc>Created with Sketch.</desc>
    <defs></defs>
    <g id="Page-1" stroke="none" stroke-width="1" fill="none" fill-rule="evenodd" sketch:type="MSPage">
        <g id="checkbox-checked" sketch:type="MSArtboardGroup" fill="#FFFFFF">
            <path d="M0,0 L0,16 L16,16 L16,0 L0,0 L0,0 Z M15,15 L1,15 L1,1 L15,1 L15,15 L15,15 Z" id="Shape" sketch:type="MSShapeGroup"></path>
            <path d="M2.5,8 L4,6.5 L6.5,9 L12,3.5 L13.5,5 L6.5,12 L2.5,8 Z" id="Shape" sketch:type="MSShapeGroup"></path>
        </g>
    </g>
</svg>
